src/img/contact-icon/geo.svg

<svg width="15" height="18" viewBox="0 0 15 18" fill="none" xmlns="http://www.w3.org/2000/svg">
<g clip-path="url(#clip0)">
<path d="M7.21338 0C3.23877 0 0 3.23877 0 7.21338C0 7.66491 0.0390214 8.12202 0.128213 8.56798C0.133788 8.59585 0.144937 8.67389 0.178383 8.80768C0.289873 9.29266 0.451533 9.77207 0.663363 10.2292C1.43822 12.0576 3.14958 14.8727 6.90121 17.8829C6.99597 17.961 7.10746 17.9944 7.22453 17.9944C7.33602 17.9944 7.45308 17.9554 7.54785 17.8829C11.2939 14.8727 13.0108 12.0576 13.7857 10.2292C13.9975 9.77207 14.1592 9.29823 14.2707 8.80768C14.2985 8.67389 14.3153 8.59028 14.3208 8.56798C14.4045 8.12202 14.4491 7.66491 14.4491 7.21338C14.4323 3.23877 11.1936 0 7.21338 0ZM13.3007 8.39517C13.3007 8.40074 13.2951 8.41189 13.2951 8.41747C13.2896 8.43419 13.2784 8.49551 13.2617 8.57913C13.2617 8.5847 13.2617 8.5847 13.2617 8.5847C13.1669 9.00836 13.0276 9.42087 12.8436 9.81666C12.838 9.82224 12.838 9.82781 12.838 9.83338C12.1301 11.5057 10.5859 14.0588 7.21895 16.8405C3.85197 14.0588 2.30784 11.5057 1.59988 9.83338C1.5943 9.82781 1.5943 9.82224 1.5943 9.81666C1.41592 9.42645 1.27098 9.00836 1.17622 8.5847C1.17622 8.57913 1.17622 8.57913 1.17622 8.57913C1.15392 8.48993 1.14834 8.43419 1.14277 8.41747C1.14277 8.41189 1.13719 8.40074 1.13719 8.38959C1.05915 7.99938 1.0257 7.60917 1.0257 7.21338C1.0257 3.79622 3.80737 1.01456 7.22453 1.01456C10.6417 1.01456 13.4234 3.79622 13.4234 7.21338C13.4122 7.60917 13.3732 8.01053 13.3007 8.39517Z" fill="#26B899"/>
<path d="M7.21308 2.71484C4.68784 2.71484 2.63086 4.77183 2.63086 7.29707C2.63086 9.82231 4.69342 11.8737 7.21308 11.8737C9.73275 11.8737 11.7953 9.81673 11.7953 7.29149C11.7953 4.76625 9.73832 2.71484 7.21308 2.71484ZM7.21308 10.8592C5.24529 10.8592 3.65099 9.25928 3.65099 7.29707C3.65099 5.33485 5.25087 3.73497 7.21308 3.73497C9.1753 3.73497 10.7752 5.33485 10.7752 7.29707C10.7752 9.25928 9.18088 10.8592 7.21308 10.8592Z" fill="#26B899"/>
</g>
<defs>
<clipPath id="clip0">
<rect width="14.4379" height="18" fill="white"/>
</clipPath>
</defs>
</svg>

<svg width="15" height="18" fill="none" xmlns="http://www.w3.org/2000/svg"><g clip-path="url(#clip0)" fill="#26B899"><path d="M7.213 0C3.24 0 0 3.239 0 7.213c0 .452.039.909.128 1.355.006.028.017.106.05.24.112.485.274.964.485 1.421.775 1.829 2.487 4.644 6.238 7.654a.496.496 0 00.324.111.54.54 0 00.323-.111c3.746-3.01 5.463-5.825 6.238-7.654.212-.457.373-.93.485-1.421a7.375 7.375 0 00.178-1.594C14.432 3.238 11.194 0 7.213 0zm6.088 8.395c0 .006-.006.017-.006.022a3.454 3.454 0 00-.033.162v.006a6.056 6.056 0 01-.418 1.232c-.006.005-.006.01-.006.016-.708 1.673-2.252 4.226-5.619 7.007-3.367-2.781-4.911-5.334-5.62-7.007-.005-.005-.005-.01-.005-.016a6.29 6.29 0 01-.418-1.232v-.006c-.022-.09-.028-.145-.033-.162 0-.005-.006-.016-.006-.027a6.207 6.207 0 016.087-7.375 6.207 6.207 0 016.2 6.198c-.012.396-.05.798-.123 1.182z"/><path d="M7.213 2.715a4.59 4.59 0 00-4.582 4.582 4.588 4.588 0 004.582 4.577 4.593 4.593 0 004.582-4.583 4.584 4.584 0 00-4.582-4.576zm0 8.144a3.565 3.565 0 01-3.562-3.562c0-1.962 1.6-3.562 3.562-3.562 1.962 0 3.562 1.6 3.562 3.562a3.565 3.565 0 01-3.562 3.562z"/></g><defs><clipPath id="clip0"><path fill="#fff" d="M0 0h14.438v18H0z"/></clipPath></defs></svg>
